X:1
T:Christus Der Uns Selig Macht, 76.76 D
T:Christus Der Uns Selig Macht, 76.76 D
T:Michael Weisse, 1531
T:Public Domain Courtesy of the Cyber Hymnal™
C:Michael Weisse, 1531
Z:Public Domain
Z:Courtesy of the Cyber Hymnal™
%%score ( 1 2 ) ( 3 4 )
L:1/8
Q:1/4=110
M:4/4
K:F
V:1 treble 
V:2 treble 
V:3 bass 
V:4 bass 
V:1
 [Gd]2 [Gd]2 [Fd]2 [Fc]2 | [_Ec]2 [DB]2 [DA]4 | [DG]2 [DF]2 [B,G]2 [DA]2 | ([_Ec]6 [DB]2) | %4
 [DA]4 z4 | [DG]2 [DA]2 [DB]2 [_EG]2 | [DG]2 [C_E]2 [=B,D]4 | [G,C]2 [G,=B,]2 [G,C]2 [_B,D]2 | %8
 (F6 _E2) | [=B,D]4 z4 | [_EG]2 [EG]2 [EG]2 [DF]2 | [C_E]2 [=B,D]2 C4 | [CF]2 [DF]2 [B,G]2 [DA]2 | %13
 ([_Ec]6 [DB]2) | [DA]4 z4 | [DG]2 [DA]2 [DB]2 [_EG]2 | [DG]2 [C_E]2 [=B,D]4 | %17
 [G,C]2 [G,=B,]2 [G,C]2 [_B,D]2 | (F6 _E2) | [=B,D]8 |] %20
V:2
 x8 | x8 | x8 | x8 | x8 | x8 | x8 | x8 | C8 | x8 | x8 | x4 C4 | x8 | x8 | x8 | x8 | x8 | x8 | C8 | %19
 x8 |] %20
V:3
 [G,B,]2 [G,B,]2 B,2 [F,A,]2 | [C,G,]2 [G,,G,]2 [D,^F,]4 | [G,,B,]2 [B,,B,]2 [_E,G,]2 [D,^F,]2 | %3
 G,8 | [D,^F,]4 z4 | [G,B,]2 [^F,A,]2 G,2 [_E,B,]2 | [B,,B,]2 [C,G,]2 [G,,G,]4 | %7
 [C,_E,]2 [G,,D,]2 [C,E,]2 [B,,F,]2 | ([F,,A,]6 [C,G,]2) | [G,,G,]4 z4 | %10
 [_E,B,]2 [E,B,]2 [E,B,]2 [B,,B,]2 | [C,G,]2 [G,,G,]2 [C,E,]4 | %12
 [A,,F,]2 [B,,B,]2 [_E,G,]2 [D,^F,]2 | G,8 | [D,^F,]4 z4 | [G,B,]2 [^F,A,]2 G,2 [_E,B,]2 | %16
 [B,,B,]2 [C,G,]2 [G,,G,]4 | [C,_E,]2 [G,,D,]2 [C,E,]2 [B,,F,]2 | ([F,,A,]6 [C,G,]2) | [G,,G,]8 |] %20
V:4
 x4 B,2 x2 | x8 | x8 | (C,6 G,,2) | x8 | x4 G,2 x2 | x8 | x8 | x8 | x8 | x8 | x8 | x8 | %13
 (C,6 G,,2) | x8 | x4 G,2 x2 | x8 | x8 | x8 | x8 |] %20

